X: 1371
T: An Ríl Dochasach
R: reel
M: 4/4
K: Gmajor
"G"G2GA BcdB|"Am"ceab "D"agef|"G"gbag "Am"gagf|"D"d2cd AGFD|
"G"GDGA Bcdg|"G"gagf "Am"gbag|"D"fadc AdcA|1 "G"Bd"D"cA "G"G3D:|2 "G"Bd"D"cA "G"G4||
|:"G"g2ag "D"fdde|f2ga gfdc|"D"Addc defg|"Am"(3abc' ag "D"fadc|
"G"(3Bcd GB "D"AGFd|"D"dedg fad2|"G"GB "D"(3ABc "G"Bd"C"ge|"D"fdcA "G"AGG2:|

